frontend/public/svg/e-commerce/factory.svg

<svg width="159" height="153" viewBox="0 0 159 153" fill="none" xmlns="http://www.w3.org/2000/svg">
<path d="M71.2725 61.8975C76.174 58.2056 80.3457 55.0162 84.568 51.8947C90.7973 47.2898 97.06 42.7323 103.314 38.1603C103.848 37.7499 104.412 37.3792 105 37.0511C108.417 35.2541 111.03 36.8457 111.128 40.6748C111.289 46.9513 111.53 53.2254 111.753 59.9916C112.882 59.3582 113.643 59.0068 114.326 58.5369C125.342 50.9903 136.355 43.4408 147.366 35.8881C148.724 34.8959 150.203 34.0798 151.767 33.4595C155.17 32.2473 157.206 33.6225 157.628 37.2258C157.733 38.3433 157.773 39.4661 157.748 40.5883C157.713 71.1348 157.678 101.681 157.643 132.229C157.643 136.823 157.76 141.421 157.896 146.016C157.978 148.802 156.79 150.185 153.888 150.16C151.084 150.136 148.281 149.811 145.478 149.815C126.387 149.842 107.295 149.849 88.2047 150.008C76.0782 150.109 63.9515 150.378 51.829 150.723C41.3932 151.019 30.9634 151.592 20.527 151.911C16.491 152.053 12.4504 151.971 8.42351 151.666C4.17373 151.323 1.93366 148.798 1.88706 144.604C1.70788 128.549 1.48401 112.494 1.49319 96.4386C1.50173 78.3597 1.70867 60.281 1.90885 42.2028C1.95348 38.1703 2.28275 34.1375 2.57417 30.1121C2.73759 27.8563 3.88699 26.421 6.39682 26.0732C13.1702 25.1346 19.9632 24.2546 26.7773 23.7295C30.8039 23.4191 32.0529 24.5894 32.5865 28.5688C33.3328 34.1273 33.8094 39.7264 34.3332 45.3098C34.8458 50.7811 35.2717 56.2596 35.7811 62.2625C36.8128 61.5635 37.6114 61.0936 38.3308 60.5245C44.757 55.4405 51.1327 50.2908 57.6082 45.2705C59.6456 43.6857 61.8247 42.2917 64.1177 41.1065C67.4375 39.4 69.8095 40.6571 70.4843 44.3529C70.6884 45.9102 70.7835 47.4796 70.7691 49.0501C70.9371 53.0767 71.0868 57.1068 71.2725 61.8975ZM150.296 143.1C148.453 109.328 149.938 75.8322 151.451 42.0576C150.876 42.2823 150.319 42.5469 149.781 42.8492C136.879 51.6048 123.988 60.3752 111.106 69.1605C108.209 71.1459 105.212 70.1719 104.493 66.7084C104.334 65.5996 104.312 64.4753 104.427 63.361C104.536 61.0061 104.783 58.6559 104.835 56.3009C104.908 53.0061 104.853 49.7086 104.853 45.7338C100.473 48.982 96.5927 51.7926 92.7853 54.6989C86.2718 59.6706 79.8036 64.7019 73.3183 69.7105C71.3421 71.2358 69.3107 71.3947 67.026 70.2966C64.6822 69.1703 63.7383 67.3365 63.8046 64.8891C63.8984 61.4105 64.1014 57.9384 64.2065 54.4617C64.2649 52.5452 64.2167 50.6255 64.2167 48.3447C63.3339 48.9354 62.8384 49.1934 62.4262 49.5491C56.7292 54.4572 51.0061 59.3365 45.3688 64.3128C42.2564 67.0609 39.299 69.9829 36.2621 72.8163C34.6705 74.3016 32.8287 74.9822 30.7009 74.2064C28.6603 73.4589 27.9339 71.6749 27.6064 69.7289C27.4813 68.726 27.4452 67.7139 27.4987 66.7045C27.6339 55.7026 27.7754 44.7002 27.9233 33.6973C27.9384 32.5159 27.9233 31.3343 27.9233 29.8359L7.36562 33.9387C7.36562 37.0891 7.35643 39.987 7.36562 42.886C7.4201 57.5939 7.51202 72.3017 7.5284 87.0096C7.5494 104.855 6.54374 122.709 7.95948 140.543C8.09075 142.181 8.4077 143.803 8.67351 145.674C32.4159 144.808 55.8353 143.618 79.2693 143.193C102.84 142.766 126.422 143.1 150.296 143.1Z" fill="black"/>
<path d="M33.4398 2.13436C36.2981 2.9876 39.2042 3.70954 42.0029 4.73343C45.1533 5.88202 48.1861 7.3504 51.3083 8.58431C54.8374 9.97903 57.9966 9.36647 61.0742 7.04501C63.6171 5.21515 66.2971 3.58419 69.0904 2.16608C72.7593 0.201007 76.5241 0.410875 80.4844 1.62575C84.8543 2.96534 89.3837 3.79166 93.8494 4.81226C95.2336 5.12993 96.923 5.0091 97.0445 7.04376C97.0359 7.90428 96.6914 8.72746 96.0836 9.33674C95.4758 9.94608 94.6534 10.2934 93.793 10.304C90.8979 10.4736 87.9936 10.403 85.1103 10.0931C83.5377 9.95796 82.0189 9.45737 80.6734 8.63137C76.7485 6.05592 73.2627 7.07323 69.8078 9.47871C68.3369 10.5032 66.7827 11.4236 65.3955 12.5493C61.0092 16.1086 56.0096 16.8346 50.8029 15.306C46.8617 14.0484 43.0059 12.5378 39.2593 10.7837C34.2055 8.55675 27.8844 9.33969 23.9969 13.22C22.6678 14.7116 21.5976 16.4152 20.8312 18.2601C20.1591 19.6726 19.5187 20.9141 17.8011 20.9509C16.323 20.9831 14.7096 19.436 14.8257 17.4506C14.888 15.3533 15.4506 13.3015 16.4666 11.4657C20.2825 5.30334 26.2378 2.87536 33.4398 2.13436Z" fill="black"/>
<path d="M34.8243 87.6493C38.9697 87.6493 43.1169 87.5778 47.261 87.6677C52.0805 87.772 51.975 87.8587 53.6539 92.5108C54.6456 95.2595 54.563 98.471 54.5689 101.476C54.5742 103.916 53.1616 104.999 50.294 105.241C45.6052 105.635 40.9083 105.955 36.2123 106.255C31.7413 106.539 27.2685 106.903 22.7922 106.963C18.2359 107.022 16.7803 105.473 16.4731 101.018C16.3274 98.897 15.9531 96.7875 15.8777 94.6662C15.7582 91.2808 16.9822 88.1087 21.719 88.3122C26.0777 88.4999 30.4483 88.3522 34.8182 88.3522L34.8243 87.6493ZM22.3946 101.374L47.5465 99.424C47.6975 97.0822 47.8158 95.2484 47.9228 93.5865H20.1406C20.925 96.2887 21.5964 98.6075 22.3971 101.374H22.3946Z" fill="black"/>
<path d="M122.457 103.108C117.989 102.83 113.512 102.657 109.057 102.234C106.297 101.972 105.271 100.94 105.025 98.1871C104.821 95.5093 104.796 92.8209 104.951 90.1398C105.074 87.4258 106.09 86.312 108.719 85.8801C110.926 85.5113 113.151 85.2671 115.386 85.1496C121.982 84.8215 128.578 84.4972 135.183 84.3528C139.778 84.2517 140.717 85.2717 140.928 89.7604C141.008 91.4393 141.133 93.1169 141.171 94.7965C141.297 100.42 139.116 101.98 133.22 102.935C131.477 103.217 129.642 102.927 127.85 102.915C126.057 102.903 124.263 102.915 122.468 102.915L122.457 103.108ZM134.557 89.9849C126.387 88.9091 118.113 88.8632 109.931 89.847C109.685 92.4999 109.471 94.7801 109.227 97.4389L134.557 96.5856V89.9849Z" fill="black"/>
<path d="M80.4978 103.412C76.0275 103.174 71.5335 103.144 67.0927 102.644C62.027 102.073 61.0613 100.634 61.4551 95.5269C61.9618 88.9491 61.9803 88.8684 68.4369 88.3184C76.0189 87.6725 83.6095 87.1219 91.2 86.5686C94.4489 86.331 95.7904 87.2906 96.3096 90.5014C96.7218 93.0381 96.9443 95.6018 96.9764 98.1713C97.0139 101.5 95.8055 102.704 92.2705 102.831C88.3554 102.973 84.4305 102.863 80.5102 102.863C80.5056 103.047 80.5017 103.229 80.4978 103.412ZM90.8738 96.6447C90.732 94.9028 90.6178 93.5061 90.4879 91.9125C82.3079 92.2137 74.4371 92.3562 66.6372 93.7082V97.8779C74.7371 98.2612 82.856 97.8477 90.8758 96.6447H90.8738Z" fill="black"/>
</svg>

<svg xmlns="http://www.w3.org/2000/svg" width="159" height="153" fill="none" viewBox="0 0 159 153"><path fill="#000" d="M71.273 61.898c4.901-3.692 9.073-6.882 13.295-10.003 6.23-4.605 12.492-9.163 18.746-13.735A14 14 0 0 1 105 37.051c3.417-1.797 6.03-.205 6.128 3.624.161 6.276.402 12.55.625 19.317 1.129-.634 1.89-.985 2.573-1.455a68064 68064 0 0 0 33.04-22.649 20 20 0 0 1 4.401-2.428c3.403-1.213 5.439.163 5.861 3.766q.157 1.677.12 3.362l-.105 91.641c0 4.594.117 9.192.253 13.787.082 2.786-1.106 4.169-4.008 4.144-2.804-.024-5.607-.349-8.41-.345-19.091.027-38.183.034-57.273.193-12.127.101-24.253.37-36.376.715-10.436.296-20.866.869-31.302 1.188-4.036.142-8.077.06-12.103-.245-4.25-.343-6.49-2.868-6.537-7.062-.18-16.055-.403-32.11-.394-48.165.009-18.08.216-36.158.416-54.236.044-4.033.374-8.065.665-12.09.164-2.257 1.313-3.692 3.823-4.04 6.773-.938 13.566-1.818 20.38-2.343 4.027-.31 5.276.86 5.81 4.839.746 5.558 1.222 11.157 1.746 16.74.513 5.472.939 10.95 1.448 16.954 1.032-.7 1.83-1.17 2.55-1.738C44.757 55.44 51.133 50.29 57.608 45.27a42 42 0 0 1 6.51-4.165c3.32-1.706 5.692-.449 6.366 3.247.204 1.557.3 3.127.285 4.697.168 4.027.318 8.057.503 12.848m79.023 81.202c-1.843-33.772-.358-67.268 1.155-101.042a13 13 0 0 0-1.67.791 20370 20370 0 0 0-38.675 26.312c-2.897 1.985-5.894 1.01-6.613-2.453a13.7 13.7 0 0 1-.066-3.347c.109-2.355.356-4.705.408-7.06.073-3.295.018-6.592.018-10.567-4.38 3.248-8.26 6.059-12.068 8.965-6.513 4.972-12.981 10.003-19.467 15.011-1.976 1.526-4.007 1.685-6.292.587-2.344-1.127-3.288-2.96-3.221-5.408.093-3.478.296-6.95.402-10.427.058-1.917.01-3.837.01-6.117-.883.59-1.379.848-1.79 1.204-5.698 4.908-11.42 9.788-17.058 14.764-3.113 2.748-6.07 5.67-9.107 8.503-1.592 1.486-3.433 2.166-5.561 1.39-2.04-.747-2.767-2.531-3.095-4.477a17 17 0 0 1-.107-3.025q.202-16.502.424-33.007c.015-1.181 0-2.363 0-3.861L7.366 33.939c0 3.15-.01 6.048 0 8.947.054 14.708.146 29.416.162 44.124.021 17.845-.984 35.699.431 53.533.132 1.638.449 3.26.715 5.131 23.742-.866 47.161-2.056 70.595-2.481 23.571-.427 47.153-.093 71.027-.093M33.44 2.134c2.858.854 5.764 1.576 8.563 2.6 3.15 1.148 6.183 2.616 9.305 3.85 3.53 1.395 6.689.782 9.766-1.539a61 61 0 0 1 8.016-4.879c3.67-1.965 7.434-1.755 11.394-.54 4.37 1.34 8.9 2.166 13.365 3.186 1.385.318 3.074.197 3.195 2.232a3.293 3.293 0 0 1-3.251 3.26c-2.895.17-5.8.099-8.683-.21a10.14 10.14 0 0 1-4.437-1.463c-3.924-2.575-7.41-1.558-10.865.848-1.471 1.024-3.025 1.945-4.413 3.07-4.386 3.56-9.385 4.286-14.592 2.757a96 96 0 0 1-11.544-4.522C34.206 8.557 27.884 9.34 23.997 13.22a17.9 17.9 0 0 0-3.166 5.04c-.672 1.413-1.312 2.654-3.03 2.69-1.478.033-3.091-1.514-2.975-3.5a13.2 13.2 0 0 1 1.64-5.984c3.816-6.163 9.772-8.59 16.974-9.332"/><path fill="#000" d="M34.824 87.65c4.146 0 8.293-.072 12.437.018 4.82.104 4.714.19 6.393 4.843.992 2.749.909 5.96.915 8.965.005 2.44-1.407 3.523-4.275 3.765-4.689.394-9.386.714-14.082 1.014-4.47.284-8.944.648-13.42.708-4.556.059-6.012-1.49-6.319-5.945-.146-2.121-.52-4.23-.595-6.352-.12-3.385 1.104-6.557 5.841-6.354 4.359.188 8.73.04 13.1.04zm-12.43 13.724 25.153-1.95.376-5.838H20.14l2.256 7.788zm100.063 1.734c-4.468-.278-8.945-.451-13.4-.874-2.76-.262-3.786-1.294-4.032-4.047a60 60 0 0 1-.074-8.047c.123-2.714 1.139-3.828 3.768-4.26a59 59 0 0 1 6.667-.73c6.596-.329 13.192-.653 19.797-.797 4.595-.101 5.534.919 5.745 5.407.08 1.68.205 3.357.243 5.036.126 5.624-2.055 7.184-7.951 8.139-1.743.282-3.578-.008-5.37-.02s-3.587 0-5.382 0zm12.1-13.123a98.5 98.5 0 0 0-24.626-.138c-.246 2.653-.46 4.933-.704 7.592l25.33-.853zm-54.059 13.427c-4.47-.238-8.965-.268-13.405-.768-5.066-.571-6.032-2.01-5.638-7.117.507-6.578.525-6.659 6.982-7.209 7.582-.645 15.173-1.196 22.763-1.75 3.249-.237 4.59.723 5.11 3.933.412 2.537.634 5.1.666 7.67.038 3.329-1.17 4.533-4.706 4.66-3.915.142-7.84.032-11.76.032zm10.376-6.767-.386-4.733c-8.18.302-16.05.444-23.85 1.796v4.17c8.1.383 16.218-.03 24.238-1.233z"/></svg>
